!!!OTL@@DE: Burschenlust
!!!COM: Lyra, Justus W.
!!!ODT: 1842
!!!OMD: Allegro
!!!LYR: Geibel, Emanuel
!!!LDT: 1834
!!!OCL: Erk, Ludwig
!!!GCO: Deutscher Liederschatz, Band 1
**kern	**kern	**kern
*staff3	*staff2	*staff1
*Ipiano	*Ipiano	*Ivox
*>[A,A,B]	*>[A,A,B]	*>[A,A,B]
*>A	*>A	*>A
*clefF4	*clefG2	*clefG2
*k[f#c#]	*k[f#c#]	*k[f#c#]
*D:	*D:	*D:
*M3/4	*M3/4	*M3/4
*MM124	*MM124	*MM124
8F#\L	8d/L	8d/L
8A\J	8c#/ 8e/J	8e/J
=1	=1	=1
4D\	4d/ 4f#/	4f#/
4.D\ 4.A\	4.d/ 4.f#/	4.f#/
8D\ 8d\	8e/ 8g/	8g/
=2	=2	=2
4D\ 4d\	4g^/ 4b^/	4b^\
4.D\ 4.d\	4.f#/ 4.a/	4.a/
8D\ 8A\	8d/ 8f#/	8f#/
=3	=3	=3
2A\	(8.f#/ 8.a/L	8.a/L
.	16e/) 16g/Jk	16g/Jk
.	4e/ 4g/	4g/
4AA\ 4A\	4c#/ 4a/	4a/
=4:|!	=4:|!	=4:|!
*>B	*>B	*>B
2D\ 2A\	2d/ 2f#/	2f#/
=	=	=
4D\ 4A\	4d/ 4f#/	8f#/L
.	.	8f#/J
=5	=5	=5
4AA\ 4A\	4c#/ 4e/	4e/
4.A\ 4.c#\	4.e/ 4.a/	4.a/
8A\ 8c#\	8e/ 8a/	8a/
=6	=6	=6
4B\ 4d\	4e/ 4g#/	4g#/
4.G#\ 4.d\	4.e/ 4.b/	4.b\
8G#\ 8B\	8e/ 8b/	8b\
=7	=7	=7
4E\ 4B\	8.g#/ 8.ee/L	8.ee\L
.	16f#/ 16dd/k	16dd\Jk
4E\ 4G#\	8.e/ 8.cc#/	8.cc#\L
.	16d/ 16b/Jk	16b\Jk
*	*^	*
4E\ 4B\	8.a/L	4d\	8.a/L
.	16g#/Jk	.	16g#/Jk
*	*v	*v	*
=8	=8	=8
4A\	2c#/ 2a/	2a/
4AA/	.	.
4r	8c#/ 8a/L	8a/L
.	8e/ 8gn/J	8gn/J
=9	=9	=9
4D\ 4A\	8.d/ 8.f#/L	8.f#/L
.	16d/ 16f#/Jk	16f#/Jk
4.D\ 4.A\	4.d/ 4.f#/	4.f#/
8D\ 8d\	8e/ 8g/	8g/
=10	=10	=10
4D\ 4d\	4g^/ 4b^/	4b^\
4.D\ 4.d\	4.f#/ 4.a/	4.a/
8D\ 8A\	8d/ 8f#/	8f#/
=11	=11	=11
2A\	(8.f#/ 8.a/L	8.a/L
.	16e/) 16g/Jk	16g/Jk
.	4e/ 4g/	4g/
4AA\ 4A\	4c#/ 4a/	4a/
=12	=12	=12
2D\ 2A\	2d/ 2f#/	2f#/
==	==	==
*-	*-	*-
!!!ENC: Craig Stuart Sapp
!!!END: 2004/05/26/
!!!EFL: 023/651
